X:1
T: Lord Lyndoch
C:P. Agnew
R:Strathspey
Q: 128
K:D
M:4/4
L:1/16
|:A2|"as played by Winston Fitzgerald"d3d edcB AGFE D4|EB3 B3A GB3 B3c|d3d edcB AGFE D3F|E3F ((3G2F2E2) FD3 D2A2|
d3d edcB AGFE D4|EB3 B3A GB3 B3c|d3d edcB AGFE D3F|E3D EFGE FD3 D2:|
|:g2|((3f2e2d2) a3d b3d a3d|((3c2B2A2) e3A c3A e3g|((3f2e2d2) a3d b3d a3d|Bb3 a3g fd3 d3g|
((3f2e2d2) a3d b3d a3d|Be3 e3A ce3 e3A|((3B2c2d2) ((3c2d2e2) ((3d2e2f2) ((3e2f2g2) |fb3 a3g fd3 d2:|
